svgs/sharp-solid/franc-sign.svg

<svg xmlns="http://www.w3.org/2000/svg" viewBox="0 0 320 512"><!--! Font Awesome Pro 6.6.0 by @fontawesome - https://fontawesome.com License - https://fontawesome.com/license (Commercial License) Copyright 2024 Fonticons, Inc. --><path d="M320 32L112 32 48 32l0 64 0 96 0 64 0 64L0 320l0 64 48 0 0 96 64 0 0-96 112 0 0-64-112 0 0-64 176 0 0-64-176 0 0-96 208 0 0-64z"/></svg>

<svg xmlns="http://www.w3.org/2000/svg" viewBox="0 0 320 512"><!--! Font Awesome Pro 6.4.2 by @fontawesome - https://fontawesome.com License - https://fontawesome.com/license (Commercial License) Copyright 2023 Fonticons, Inc. --><path d="M320 32H112 48V96v96 64 64H0v64H48v96h64V384H224V320H112V256H288V192H112V96H320V32z"/></svg>
